app/dist/common/images/northrop-grumman.svg

<svg height="18" viewBox="0 0 18 18" width="18" xmlns="http://www.w3.org/2000/svg"><path d="m0 0h18v18h-18z" fill="#181b1e"/><g fill="#fff"><path d="m14 5h-4v1h4v4h1v-5zm-10 3.5v3.5h-1v-5h1.07l1.93 3.5v-3.5h1v5h-1.07z"/><path d="m12.72 8.17-1 .48c-.1-.22-.46-.65-1.16-.65-.84 0-1.56.56-1.56 1.5 0 .68.37 1.5 1.56 1.5.93 0 1.31-.55 1.37-1h-1.43v-1h2.5c0 1.78-.63 3-2.44 3-1.6 0-2.56-1.2-2.56-2.5s1.05-2.5 2.56-2.5a2.5 2.5 0 0 1 2.16 1.17z"/></g></svg>

<!-- by TradingView --><svg width="18" height="18" viewBox="0 0 18 18" xmlns="http://www.w3.org/2000/svg"><path fill="#181B1E" d="M0 0h18v18H0z"/><path d="M14 5h-4v1h4v4h1V5h-1ZM4 8.5V12H3V7h1.07L6 10.5V7h1v5H5.93L4 8.5Z" fill="#fff"/><path d="m12.72 8.17-1 .48c-.1-.22-.46-.65-1.16-.65C9.72 8 9 8.56 9 9.5c0 .68.37 1.5 1.56 1.5.93 0 1.31-.55 1.37-1H10.5V9H13c0 1.78-.63 3-2.44 3C8.96 12 8 10.8 8 9.5S9.05 7 10.56 7a2.5 2.5 0 0 1 2.16 1.17Z" fill="#fff"/></svg>
